X:1
T:James Gibb editions
T:Jesu, lover of my soul  - Barnby
%%score [ ( 1 2 ) ( 3 4 ) ]
L:1/8
Q:1/4=80
M:4/4
K:Bb
V:1 treble nm="Midi_74"
V:2 treble 
V:3 bass nm="Midi_74"
V:4 bass 
V:1
"^77. 77. D""^Jesu, lover of my soul""^Joseph Barnby\n(1838-96)""^Charles Wesley\n(1707-88)" G2 A2 | %1
 G2 ^F2"^cresc." A3 B | (A2 G2) || B2 c2 | d2 B2 c2 d2 | B4 || B2"^1" B2 |"^dim." B2 A2 A2 G2 | %8
 (G2 ^F2) ||[M:4/4] ^F2 G2 | .^F2 .=E2 ^D3 E | !fermata!!courtesy!=D4 ||[K:G]"^slower"!pp! D2 E2 | %13
 E2 F2 G2 A2 | (^A2 B2) || B2 B2 | B2!<(! d2 c2!<)! E2 | A4 || G2 G2 | G2 A2 B2 A2 | (d2 ^d2) || %21
!f! e2 !courtesy!=d2 |"^dim." c2 E2!p! A7/2 G/ | G4 || G4 G4 |] %25
V:2
 D2 D2 | D2 D2 ^F3 F | (^F2 G2) || D2 E2 | D2 F2 E2 E2 | D4 || D2 D2 | E2 E2 E2 =E2 | D4 || %9
[M:4/4] D2 D2 | .^C2 .C2 C3 C | !courtesy!=D4 ||[K:G] B,2 D2 | C2 C2 C2 C2 | (C2 B,2) || D2 ^D2 | %16
 E2 =F2 E2 E2 | ^F4 || G2 =F2 | E2 E2 ^F2 F2 | (G2 =F2) || E2 E2 | E2 E2 F7/2 G/ | G4 || E4 D4 |] %25
V:3
 B,2 C2 | B,2 A,2 C3 D | (C2 B,2) || B,2 B,2 | B,2 D2 A,2 A,2 | B,4 || D2"^1" D2 | D2 C2 C2 B,2 | %8
 (B,2 A,2) ||[M:4/4]"^rit." A,2 G,2 | .A,2 .G,2 G,3 G, | ^F,4 ||[K:G]!pp! G,2 B,2 | %13
 A,2 A,2 E,2 F,2 | (F,2 G,2) || G,2 G,2 | G,2 ^G,2 A,2 C2 | C4 || %18
"^cresc.""^1 Jesus, lover of my soul,\nlet me to Thy bosom fly,\nwhile the nearer waters roll,\nwhile the tempest still is high;\nhide me, O my Saviour, hide,\ntill the storm of life is past;\nsafe into the haven guide;\nO receive my soul at last.\n\n2 Other refuge have I none;\nhangs my helpless soul on Thee;\nleave, ah, leave me not alone,\nstill support and comfort me;\nall my trust on Thee is stayed,\nall my help from Thee I bring;\ncover my defenceless head\nwith the shadow of Thy wing." B,2 B,2 | %19
 C2 E2 _E2 E2 | (D2 C2) || %21
"^3 Thou, O Christ, art all I want;\nmore than all in Thee I find;\nraise the fallen, cheer the faint,\nheal the sick, and lead the blind.\nJust and holy is Thy Name,\nI am all unrighteousness!\nFalse and full of sin I am,\nThou art full of truth and grace.\n\n4 Plenteous grace with Thee is found,\ngrace to cover all my sin;\nlet the healing streams abound,\nmake and keep me pure within;\nThou of life the Fountain art,\nfreely let me take of Thee,\nspring Thou up within my heart,\nrise to all eternity." B,2 B,2 | %22
 C2 C2 C7/2 B,/ | B,4 || C4 B,4 |] %25
V:4
 G,2 G,2 | D,2 D,2 D,3 D, | G,4 || G,2 _G,2 | F,2 F,2 F,2 F,2 | B,,4 || B,,2 B,,2 | %7
 C,2 C,2 C,2 ^C,2 | D,4 ||[M:4/4] D,2 B,,2 | .A,,2 .A,,2 A,,3 A,, | !fermata!D,4 || %12
[K:G] G,,2 G,,2 | D,2 D,2 D,2 D,2 | G,,4 || B,,2 B,,2 | C,2 C,2 C,2 C,2 | D,4 || E,2 D,2 | %19
 C,2 C,2 C2 C2 | (B,2 A,2) || ^G,2 G,2 | A,2 A,2 D,7/2 G,,/ | G,,4 || C,4 G,,4 |] %25

